X: 1
T: Oldham Rant
O: c.1820
M: 2/4
L: 1/8
R: rant
N: from the Kershaw ms., c. 1820, Lancashire, plus chords and tweaks from group playing.
F: http://tunearch.org/wiki/Oldham_Rant 2016-6-25
S: Gilchrist "Old Fiddlers' Tune Books of the Georgian Period" (JEFDSS, vol. 4, No. 1, Dec. 1940, p. 19)
K: D
   ag |\
"D"fddd Add2 | "D7"edef "G"g2g2 |\
"D"fddd Add2 | "A7"edef "D"d2  :| 
|: de |\
"D"fgaf  "G"g2g2 |  "D"fgaf "G"g2g2 |\
"D"fgaf "A7"a2bg | "A7"fdec "D"d2 :| 
